src/dsmComponents/Icons/passenger-24px.svg

<?xml version="1.0" encoding="UTF-8"?>
<svg width="20px" height="24px" viewBox="0 0 20 24" version="1.1" xmlns="http://www.w3.org/2000/svg" xmlns:xlink="http://www.w3.org/1999/xlink">
    <!-- Generator: Sketch 59.1 (86144) - https://sketch.com -->
    <title>passenger-24px</title>
    <desc>Created with Sketch.</desc>
    <defs>
        <path d="M14.5400175,22.0148075 C15.0782352,22.0148075 15.5156836,22.4592298 15.5156836,23.0070062 C15.5156836,23.5555776 15.0782352,24 14.5400175,24 L14.5400175,24 L5.54889132,24 C5.00989244,24 4.57322524,23.5555776 4.57322524,23.0070062 C4.57322524,22.4592298 5.00989244,22.0148075 5.54889132,22.0148075 L5.54889132,22.0148075 Z M18.5343898,3.85629814 C18.778111,3.64402484 19.149161,3.67185093 19.3592924,3.92308075 C19.570205,4.17351553 19.540521,4.54956522 19.2936752,4.76342857 L19.2936752,4.76342857 L2.17460212,19.6281242 L18.9140325,19.6281242 C19.2374318,19.6281242 19.5,19.8952547 19.5,20.2243975 C19.5,20.5535404 19.2374318,20.8206708 18.9140325,20.8206708 L18.9140325,20.8206708 L0.585727166,20.8206708 C0.340443619,20.8206708 0.120938279,20.6648447 0.0357920793,20.4303106 C-0.0485729623,20.1965714 0.0193877657,19.9326211 0.206084478,19.7704348 L0.206084478,19.7704348 L4.45558287,16.0806957 L4.19311386,11.2397516 C4.19311386,11.0640497 4.21498627,10.891528 4.25091953,10.7229814 C4.27357311,10.6148571 4.31341216,10.5122981 4.34934541,10.4081491 C4.36731204,10.3588571 4.38059173,10.3071801 4.40168299,10.2586832 C4.45948866,10.1227329 4.53213634,9.99632298 4.61259559,9.87229814 C4.61884485,9.8635528 4.6235318,9.85480745 4.62978106,9.84606211 C4.77429525,9.62981366 4.94146302,9.42708075 5.15393794,9.26250932 C6.09523308,8.53267081 7.72785287,7.63269565 10.0517973,7.63269565 C11.3938264,7.63269565 12.5030705,7.93401242 13.3842165,8.32834783 L13.3842165,8.32834783 Z M15.3631235,9.70200248 C15.4068683,9.76083478 15.454519,9.81648696 15.494358,9.87849938 C15.5092,9.90076025 15.524042,9.92461118 15.5381028,9.94766708 C15.6021578,10.0542012 15.6607446,10.1615304 15.7083952,10.2768099 C15.7349546,10.3396174 15.7544835,10.4048099 15.7755748,10.4700025 C15.8036965,10.5566609 15.8349428,10.6417292 15.8536906,10.7315677 C15.8888427,10.8961391 15.9099339,11.0646857 15.9099339,11.2364124 C15.9099339,11.2372075 15.9107151,11.2387975 15.9107151,11.2395925 L15.9107151,11.2395925 L15.5060754,18.4314435 L5.38851963,18.4314435 Z M10.0519535,-2.84217094e-14 C11.8493976,-2.84217094e-14 13.3062569,1.42390062 13.3062569,3.18012422 C13.3062569,4.93634783 11.8493976,6.36024845 10.0519535,6.36024845 C8.2537283,6.36024845 6.79686901,4.93634783 6.79686901,3.18012422 C6.79686901,1.42390062 8.2537283,-2.84217094e-14 10.0519535,-2.84217094e-14 Z" id="path-1"></path>
    </defs>
    <g id="Final" stroke="none" stroke-width="1" fill="none" fill-rule="evenodd">
        <g id="All-Nucleo-Icons" transform="translate(-610.000000, -7190.000000)">
            <g id="Solo/Nucleo/24px/passenger" transform="translate(608.000000, 7190.000000)">
                <g transform="translate(2.000000, 0.000000)" id="Colour/Default-Colour">
                    <g>
                        <mask id="mask-2" fill="white">
                            <use xlink:href="#path-1"></use>
                        </mask>
                        <use id="Mask" fill="#737373" xlink:href="#path-1"></use>
                        <g id="colour/neutral/chia" mask="url(#mask-2)" fill="#737373">
                            <g transform="translate(-22.000000, -20.000000)" id="Colour">
                                <rect x="0" y="0" width="64" height="64"></rect>
                            </g>
                        </g>
                    </g>
                </g>
            </g>
        </g>
    </g>
</svg>

<svg width="20" height="24" xmlns="http://www.w3.org/2000/svg" xmlns:xlink="http://www.w3.org/1999/xlink"><defs><path d="M14.54 22.015c.538 0 .976.444.976.992a.985.985 0 01-.976.993H5.549a.984.984 0 01-.976-.993c0-.548.437-.992.976-.992zm3.994-18.159a.578.578 0 01.825.067.601.601 0 01-.065.84L2.174 19.628h16.74c.323 0 .586.267.586.596 0 .33-.263.597-.586.597H.586a.587.587 0 01-.55-.39.605.605 0 01.17-.66l4.25-3.69-.263-4.841c0-.176.022-.348.058-.517.023-.108.062-.21.098-.315.018-.05.032-.1.053-.15.057-.135.13-.262.21-.386.007-.008.012-.017.018-.026.144-.216.311-.419.524-.583.941-.73 2.574-1.63 4.898-1.63 1.342 0 2.451.301 3.332.695zm-3.17 5.846c.043.059.09.114.13.176l.044.07c.064.106.123.214.17.329.027.063.046.128.068.193.028.087.059.172.078.262.035.164.056.333.056.504v.004l-.404 7.191H5.39zM10.051 0c1.797 0 3.254 1.424 3.254 3.18 0 1.756-1.457 3.18-3.254 3.18-1.798 0-3.255-1.424-3.255-3.18C6.797 1.424 8.254 0 10.052 0z" id="passenger-24px_svg__a"/></defs><use fill="#737373" xlink:href="#passenger-24px_svg__a" fill-rule="evenodd"/></svg>
